%
O3432 
(MACHINE)
(  MODEL FANUC)
(  DESCRIPTION DESCRIPTION)
(T25  D=7.3553  CR=-5.0672  - DRILL)
N15 G20 
N20 G28 G91 X0 
(  VENDOR FANUC)
N10 G90 G94 G17 G49 G40 G80 
N30 G28 G91 X0 
N40 G69 
N45 G68.2 X10 Y11 Z12 I0 J0 K0 
N50 G53.1 

N55 S1 M4 
N60 G17 G90 G94 
N65 M0 
N70 G69 
N75 G28 G91 X0 
N80 G90 
N85 G0 A1 B1 C1 
N90 M8 
N95 G28 G91 X0 
N25 G90 
N100 G90 
N105 G69 
N110 G68.2 X10 Y11 Z12 I0 J0 K1 
N115 G53.1 
N120 G90 G0 X1 Y1 
N35 G90 
N130 G43.4 H2 
N135 G65 P9832
N140 PCLOS
N145 POPEN
DPRNT[START]
DPRNT[RESULTSFILE*-RESULTS]
DPRNT[DOCUMENTID*]
DPRNT[MODELVERSION*]
N150 G1 X2.1000 Y1 Z0.1969 F0.0 
N155 G1 X1.0000 Y1.0000 Z-0.0434 F0.0 
N160 G1 X1.7000 Y1.0000 Z1.0000 F0.0 
N165 G1 X1.5566 Y1.0000 Z1.0000 F0.0 
N170 G1 X1.5000 Y1.0000 Z-0.1000 F0.0 
N175 G1 X-0.0320 Y1.0000 Z1.0000 F0.0 
N180 G1 X0.0246 Y1.0000 Z-0.0434 F0.0 
N185 G1 X2.1000 Y1.0000 Z1.0000 F0.0 
N190 G1 X1.0000 Y1.0000 Z0.1969 F0.0 
N125 G69 
N195 G94 
N205 G65 P9833
N210 G28 G91 X0 
N200 G17 
N220 G28 G91 X0 
N225 G90 
N215 G90 
N235 G68.2 X10 Y11 Z12 I0 J0 K0 
N230 G69 
N240 G53.1 
N245 S1 M4 
N250 G17 G90 G94 
N255 M0 
N260 G69 
N265 G28 G91 X0 
N270 G90 
N275 G0 A1 B1 C1 
N280 M8 
N285 G90 G0 X1 Y1.0000 ,

N295 G1 X1.9000 Y1.0000 Z1.0000 F0.0 
N300 G1 X1.0000 Y1.0000 Z-0.1000 F0.0 
N305 G1 X1.4520 Y1.0000 Z1.0000 F0.0 
N310 G1 X1.0000 Y1.0000 Z-1.0504 F0.0 
N315 G1 X1.5000 Y1.0000 Z1.0000 F0.0 
N290 G65 P9832
N325 G1 X1.0000 Y1.0000 Z-0.1000 F0.0 
N335 G1 X1.4221 Y1.0000 Z1.0000 F0.0 
N320 G1 X1.5400 Y1.0000 Z-1.0104 F0.0 
N330 G1 X1.4461 Y1.0000 Z1.0000 F0.0 
N340 G17 G2 X1.4040 Y1.0000 Z-0.1480 I1F0.0 
N350 G17 G2 X1.4054 Y1.0000 Z-1.0491 I1F0.0 
N355 G1 X1.4059 Y1.0000 Z-1.0504 F0.0 
N345 G1 X1.0000 Y1.0000 Z-1.0452 F0.0 
N365 G1 X1.4920 Y1.0000 Z-1.0104 F0.0 
N370 G1 X1.0000 Y1.0000 Z-0.1480 F0.0 
N375 G1 X1.4280 Y1.0000 Z1.0000 F0.0 
N380 G1 X1.4040 Y1.0000 Z1.0000 F0.0 
N385 G17 G2 X1.3655 Y1.0000 Z-0.2771 I1F0.0 
N390 G1 X1.0000 Y1.0000 Z-0.9161 F0.0 
N395 G17 G2 X1.4040 Y1.0000 Z-1.0452 I1F0.0 
N400 G1 X1.4440 Y1.0000 Z-1.0052 F0.0 
N405 G1 X1.0000 Y1.0000 Z-0.2771 F0.0 
N410 G1 X1.3895 Y1.0000 Z1.0000 F0.0 
N415 G1 X1.3655 Y1.0000 Z1.0000 F0.0 
N420 G17 G2 X1.0000 Y1.0000 Z-0.9161 I1F0.0 
N360 G1 X1.4520 Y1.0000 Z1.0000 F0.0 
N425 G1 X1.4055 Y1.0000 Z-0.8761 F0.0 
N435 G1 X1.0000 Y1.0000 Z0.1969 F0.0 
N440 G94 
N445 G17 
N450 G65 P9833
N455 G28 G91 X0 
N430 G1 X1.9000 Y1.0000 Z1.0000 F0.0 
N465 G28 G91 X0 
N470 G90 
N475 G69 
N480 G68.2 X10 Y11 Z12 I0 J0 K0 
N460 G90 
N485 G53.1 

N490 S1 M4 
N495 G17 G90 G94 
N500 M0 
N505 G69 
N510 G28 G91 X0 
N515 G90 
N520 G0 A1 B1 C1 
N525 M8 
N530 G90 G0 X1 Y1.0000 ,
N535 G65 P9832
N540 G0 X-1.1258 Y0.6500 Z0.6000 
N545 G17 
DPRNT[TOOLPATHID*]
DPRNT[CYCLEDEPTH*NaN ]
DPRNT[G331*N#122[60]*A0 *B0 *C1 *X1.1258330307607576 *Y-0.6500000090110959 *Z-0.5999999909889041 ]
DPRNT[G330*N#122[60]*A0 *B0 *C1 *X0*Y0*Z0*I0*R0]
N550 G65 P9810Z-0.4601 F1 
N555 G65 P9810X1.0000 Y1.0000 F500.0 
DPRNT[CYCLEDEPTH*NaN ]
DPRNT[TOOLPATHID*]
DPRNT[G331*N#122[60]*A0 *B0 *C1 *X1.1258330307607576 *Y-0.6500000090110959 *Z0.46008605656661383 ]
DPRNT[G330*N#122[60]*A0 *B0 *C1 *X0*Y0*Z0*I0*R0]
N560 G65 P9810Z1.0000 F1 
N565 G65 P9810X1.0000 Y-0.6500 F500.0 
N570 G65 P9810Z1 
N575 G94 
N585 G65 P9833
DPRNT[END]
N590 PCLOS

N595 M1 
N605 G90 
N610 G49 
N600 G28 G91 X0 
N615 G28 G91 X0 
N580 G17 
N625 G69 
N620 G90 
N630 G68.2 X10 Y11 Z12 I0 J0 K0 
N635 G53.1 
N640 G28 G91 X0 ,X0 
N645 G90 
N650 M30 
%
