%
O3432 
(  VENDOR FANUC)
(MACHINE)
(  DESCRIPTION DESCRIPTION)
(T41  D=3.9662  CR=-7.6177  - DRILL)
N10 G90 G94 G17 G49 G40 G80 
(  MODEL FANUC)
N20 G28 G91 X0 
N25 G90 
N30 G28 G91 X0 
N15 G20 
N35 G90 
N40 G69 
N45 G68.2 X10 Y11 Z12 I0 J0 K0 
N50 G53.1 

N55 S1 M4 
N60 G17 G90 G94 
N65 M0 
N70 G69 
N75 M8 
N80 G28 G91 X0 
N85 G90 
N90 G69 
N95 G68.2 X10 Y11 Z12 I0 J0 K0 
N100 G53.1 
N105 G90 G0 
N110 G69 
N115 G43.4 H2 
N120 G65 P9832
N125 PCLOS
N130 POPEN
DPRNT[START]
DPRNT[RESULTSFILE*-RESULTS]
DPRNT[DOCUMENTID*]
DPRNT[MODELVERSION*]
N135 G0 X1.0000 Y2.0000 Z3.0000 A4.000 B5.000 C6.000 
N140 G94 G4 P1336.5 
N145 G94 
N150 S23 
N155 G28 G91 X0 
N160 G90 
N165 G49 
N170 G43.4 H2 
(TEXT)
N175 G94 G1 A4.000 B5.000 C6.000 F0.5 
N180 text
N185 G1 X2.1000 Y5.5623 Z0.1969 F0.5 
N190 G1 Z-0.0434 F0.0 
N195 G1 X1.7000 F0.0 
N200 G1 X1.5566 F0.0 
N205 G1 X1.5000 Z-0.1000 F0.0 
N210 G1 X-0.0320 F0.0 
N215 G1 X0.0246 Z-0.0434 F0.0 
N220 G1 X2.1000 F0.0 
N225 G1 Z0.1969 F0.0 
N230 G94 
N235 G17 
N240 G65 P9833
N245 G28 G91 X0 
N250 G90 
N255 G28 G91 X0 
N260 G90 
N265 G69 
N270 G68.2 X10 Y11 Z12 I0 J0 K0 
N275 G53.1 

N280 S1 M4 
N285 G17 G90 G94 
N290 M0 
N295 G69 
N300 M8 
N305 G90 G0 ,
N310 G65 P9832
N315 G1 X1.9000 F0.0 
N320 G1 Z-0.1000 F0.0 
N325 G1 X1.4520 F0.0 
N330 G1 Z-1.0504 F0.0 
N335 G1 X1.5000 F0.0 
N340 G1 X1.5400 Z-1.0104 F0.0 
N345 G1 Z-0.1000 F0.0 
N350 G1 X1.4461 F0.0 
N355 G1 X1.4221 F0.0 
N360 G17 G2 X1.4040 Z-0.1480 I1F0.0 
N365 G1 Z-1.0452 F0.0 
N370 G17 G2 X1.4054 Z-1.0491 I1F0.0 
N375 G1 X1.4059 Z-1.0504 F0.0 
N380 G1 X1.4520 F0.0 
N385 G1 X1.4920 Z-1.0104 F0.0 
N390 G1 Z-0.1480 F0.0 
N395 G1 X1.4280 F0.0 
N400 G1 X1.4040 F0.0 
N405 G17 G2 X1.3655 Z-0.2771 I1F0.0 
N410 G1 Z-0.9161 F0.0 
N415 G17 G2 X1.4040 Z-1.0452 I1F0.0 
N420 G1 X1.4440 Z-1.0052 F0.0 
N425 G1 Z-0.2771 F0.0 
N430 G1 X1.3895 F0.0 
N435 G1 X1.3655 F0.0 
N440 G17 G2 Z-0.9161 I1F0.0 
N445 G1 X1.4055 Z-0.8761 F0.0 
N450 G1 X1.9000 F0.0 
N455 G1 Z0.1969 F0.0 
N460 G94 
N465 G17 
N470 G65 P9833
N475 G28 G91 X0 
N480 G90 
N485 G28 G91 X0 
N490 G90 
N495 G69 
N500 G68.2 X10 Y11 Z12 I0 J0 K0 
N505 G53.1 

N510 S1 M4 
N515 G17 G90 G94 
N520 M0 
N525 G69 
N530 M8 
N535 G90 G0 ,
N540 G65 P9832
N545 G0 X-1.1258 Y0.6500 Z0.6000 
N550 G17 
DPRNT[TOOLPATHID*]
DPRNT[CYCLEDEPTH*-9.264786056566614 ]
DPRNT[G331*N#122[60]*ANaN *BNaN *CNaN *X1.1258330307607576 *Y-0.6500000090110959 *Z-0.5999999909889041 ]
DPRNT[G330*N#122[60]*A0 *B0 *C0 *X0*Y0*Z0*I0*R0]
N555 G65 P9810Z-0.4601 
N560 G65 P9810Z-10.4601 
N565 G65 P9811XNaN Qundefined ,,,,,,,,
DPRNT[TOOLPATHID*]
DPRNT[CYCLEDEPTH*-9.264786056566614 ]
DPRNT[G331*N#122[60]*ANaN *BNaN *CNaN *X1.1258330307607576 *Y-0.6500000090110959 *Z10.460086056566613 ]
DPRNT[G330*N#122[60]*A0 *B0 *C0 *X0*Y0*Z0*I0*R0]
N570 G65 P9810Z-0.4601 
N575 G65 P9810Y-0.6500 F500.0 
N580 G65 P9810Z-10.4601 
N585 G65 P9811XNaN Qundefined ,,,,,,,,
N590 G65 P9810
N595 G94 
N600 G17 
N605 G65 P9833
DPRNT[END]
N610 PCLOS

N615 M1 
N620 G28 G91 X0 
N625 G90 
N630 G49 
N635 G28 G91 X0 
N640 G90 
N645 G69 
N650 G68.2 X10 Y11 Z12 I0 J0 K0 
N655 G53.1 
N660 G28 G91 X0 ,X0 
N665 G90 
N670 M30 
%
