%
O3432 
(MACHINE)
(  VENDOR FANUC)
(  MODEL FANUC)
(  DESCRIPTION DESCRIPTION)
(T48  D=0  CR=0  - DRILL)
N10 G90 G94 G17 G49 G40 G80 
N15 G20 
N20 G28 G91 X0 
N25 G90 
N30 G28 G91 X0 
N35 G90 
N40 M0 
N45 G69 
N50 G68.2 X10 Y11 Z12 I0 J0 K0 
N55 G53.1 

N60 S1 M4 
N65 G17 G90 G94 
N70 M0 
N75 G69 
N80 G28 G91 X0 
N85 G90 
N90 M0 
N95 G69 
N100 G68.2 X10 Y11 Z12 I0 J0 K0 
N105 G53.1 
N110 G90 G0 
N115 G69 
N120 G43.4 H0 
N125 G65 P9832
N130 PCLOS
N135 POPEN
DPRNT[START]
DPRNT[RESULTSFILE*-RESULTS]
DPRNT[DOCUMENTID*]
DPRNT[MODELVERSION*]
N140 G0 X1.0000 Y2.0000 Z3.0000 A4.000 B5.000 C6.000 
N145 G94 G4 P1336.5 
N150 G94 
N155 S23 
N160 G28 G91 X0 
N165 G90 
N170 G49 
N175 G43.4 H0 
(TEXT)
N180 G94 G1 A4.000 B5.000 C6.000 F0.5 
N185 text
N190 G1 X2.1000 Y5.5623 Z0.1969 F0.5 
N195 G1 Z-0.0434 F0.0 
N200 G1 X1.7000 F0.0 
N205 G1 X1.5566 F0.0 
N210 G1 X1.5000 Z-0.1000 F0.0 
N215 G1 X-0.0320 F0.0 
N220 G1 X0.0246 Z-0.0434 F0.0 
N225 G1 X2.1000 F0.0 
N230 G1 Z0.1969 F0.0 
N235 G94 
N240 G17 
N245 G65 P9833
N250 G28 G91 X0 
N255 G90 
N260 G28 G91 X0 
N265 G90 
N270 M0 
N275 G69 
N280 G68.2 X10 Y11 Z12 I0 J0 K0 
N285 G53.1 

N290 S1 M4 
N295 G17 G90 G94 
N300 M0 
N305 G69 
N310 G90 G0 ,
N315 G65 P9832
N320 G1 X1.9000 F0.0 
N325 G1 Z-0.1000 F0.0 
N330 G1 X1.4520 F0.0 
N335 G1 Z-1.0504 F0.0 
N340 G1 X1.5000 F0.0 
N345 G1 X1.5400 Z-1.0104 F0.0 
N350 G1 Z-0.1000 F0.0 
N355 G1 X1.4461 F0.0 
N360 G1 X1.4221 F0.0 
N365 G17 G2 X1.4040 Z-0.1480 I1F0.0 
N370 G1 Z-1.0452 F0.0 
N375 G17 G2 X1.4054 Z-1.0491 I1F0.0 
N380 G1 X1.4059 Z-1.0504 F0.0 
N385 G1 X1.4520 F0.0 
N390 G1 X1.4920 Z-1.0104 F0.0 
N395 G1 Z-0.1480 F0.0 
N400 G1 X1.4280 F0.0 
N405 G1 X1.4040 F0.0 
N410 G17 G2 X1.3655 Z-0.2771 I1F0.0 
N415 G1 Z-0.9161 F0.0 
N420 G17 G2 X1.4040 Z-1.0452 I1F0.0 
N425 G1 X1.4440 Z-1.0052 F0.0 
N430 G1 Z-0.2771 F0.0 
N435 G1 X1.3895 F0.0 
N440 G1 X1.3655 F0.0 
N445 G17 G2 Z-0.9161 I1F0.0 
N450 G1 X1.4055 Z-0.8761 F0.0 
N455 G1 X1.9000 F0.0 
N460 G1 Z0.1969 F0.0 
N465 G94 
N470 G17 
N475 G65 P9833
N480 G28 G91 X0 
N485 G90 
N490 G28 G91 X0 
N495 G90 
N500 M0 
N505 G69 
N510 G68.2 X10 Y11 Z12 I0 J0 K0 
N515 G53.1 

N520 S1 M4 
N525 G17 G90 G94 
N530 M0 
N535 G69 
N540 G90 G0 ,
N545 G65 P9832
N550 G0 X-1.1258 Y0.6500 Z0.6000 
N555 G17 
DPRNT[TOOLPATHID*]
DPRNT[CYCLEDEPTH*-0.6701721356609674 ]
DPRNT[G331*N#122[60]*A0 *B0 *C0 *X1.1258330307607576 *Y-0.6500000090110959 *Z-0.5999999909889041 ]
DPRNT[G330*N#122[60]*A0 *B0 *C0 *X0*Y0*Z0*I0*R0]
N560 G65 P9810Z-0.4601 F40.0 
N565 G65 P9810Z-0.6702 F40.0 
N570 G65 P9811X-11.125833030760758 Q10 ,,,,,,,,S1 
DPRNT[TOOLPATHID*]
DPRNT[CYCLEDEPTH*-0.6701721356609674 ]
DPRNT[G331*N#122[60]*A0 *B0 *C0 *X1.1258330307607576 *Y-0.6500000090110959 *Z0.6701721356609674 ]
DPRNT[G330*N#122[60]*A0 *B0 *C0 *X0*Y0*Z0*I0*R0]
N575 G65 P9810Z-0.4601 F40.0 
N580 G65 P9810Y-0.6500 F500.0 
N585 G65 P9810Z-0.6702 F40.0 
N590 G65 P9811X-11.125833030760758 Q10 ,,,,,,,,S1 
N595 G65 P9810
N600 G94 
N605 G17 
N610 G65 P9833
DPRNT[END]
N615 PCLOS

N620 M1 
N625 G28 G91 X0 
N630 G90 
N635 G49 
N640 G28 G91 X0 
N645 G90 
N650 M0 
N655 G69 
N660 G68.2 X10 Y11 Z12 I0 J0 K0 
N665 G53.1 
N670 G28 G91 X0 ,X0 
N675 G90 
N680 M30 
%
